src/icons/asset-management/laptop_check_out.svg

<svg xmlns="http://www.w3.org/2000/svg" width="40" height="40" fill="none" viewBox="0 0 40 40">
  <circle cx="20" cy="20" r="20" fill="#fff"/>
  <path fill="#0488E1" fill-rule="evenodd" d="M20 40c11.0462 0 20-8.9538 20-20C40 8.95384 31.0462-.00000305 20-.00000401 8.95385-.00000498 4.5e-7 8.95384-5.2e-7 20-.00000148 31.0462 8.95384 40 20 40Zm1.0872-28.7795c-.2885-.2881-.6795-.4499-1.0872-.4499-.4077 0-.7987.1618-1.0872.4499l-6.1538 6.1539c-.1512.1408-.2724.3106-.3565.4994-.0841.1887-.1293.3924-.1329.599-.0037.2065.0343.4117.1117.6033.0774.1916.1925.3656.3386.5117.1461.1461.3201.2612.5117.3386.1916.0774.3967.1154.6033.1117.2066-.0036.4103-.0488.599-.1329.1887-.0841.3586-.2053.4994-.3565l3.5282-3.5282v11.6718c0 .408.1621.7993.4506 1.0879.2886.2885.6799.4506 1.0879.4506.408 0 .7993-.1621 1.0879-.4506.2885-.2886.4506-.6799.4506-1.0879V16.0205l3.5282 3.5282c.2916.2718.6773.4197 1.0759.4127.3986-.007.7789-.1685 1.0607-.4504.2819-.2819.4434-.6621.4504-1.0607.007-.3986-.1409-.7843-.4127-1.0759l-6.1538-6.1539Z" clip-rule="evenodd"/>
</svg>

<svg width="40" height="40" viewBox="0 0 40 40" fill="none" xmlns="http://www.w3.org/2000/svg">
<circle cx="20" cy="20" r="20" fill="white"/>
<path fill-rule="evenodd" clip-rule="evenodd" d="M20 40C31.0462 40 40 31.0462 40 20C40 8.95384 31.0462 -3.04775e-06 20 -4.01343e-06C8.95385 -4.97912e-06 4.49165e-07 8.95384 -5.16521e-07 20C-1.48221e-06 31.0462 8.95384 40 20 40ZM21.0872 11.2205C20.7987 10.9324 20.4077 10.7706 20 10.7706C19.5923 10.7706 19.2013 10.9324 18.9128 11.2205L12.759 17.3744C12.6078 17.5152 12.4866 17.685 12.4025 17.8738C12.3184 18.0625 12.2732 18.2662 12.2696 18.4728C12.2659 18.6793 12.3039 18.8845 12.3813 19.0761C12.4587 19.2677 12.5738 19.4417 12.7199 19.5878C12.866 19.7339 13.04 19.849 13.2316 19.9264C13.4232 20.0038 13.6283 20.0418 13.8349 20.0381C14.0415 20.0345 14.2452 19.9893 14.4339 19.9052C14.6226 19.8211 14.7925 19.6999 14.9333 19.5487L18.4615 16.0205L18.4615 27.6923C18.4615 28.1003 18.6236 28.4916 18.9121 28.7802C19.2007 29.0687 19.592 29.2308 20 29.2308C20.408 29.2308 20.7993 29.0687 21.0879 28.7802C21.3764 28.4916 21.5385 28.1003 21.5385 27.6923L21.5385 16.0205L25.0667 19.5487C25.3583 19.8205 25.744 19.9684 26.1426 19.9614C26.5412 19.9544 26.9215 19.7929 27.2033 19.511C27.4852 19.2291 27.6467 18.8489 27.6537 18.4503C27.6607 18.0517 27.5128 17.666 27.241 17.3744L21.0872 11.2205Z" fill="#0488E1"/>
</svg>
